X: 19
T: My Darling Asleep
Z: birlibirdie
S: https://thesession.org/tunes/76#setting49856
R: jig
M: 6/8
L: 1/8
K: Dmaj
=f|fdd cAA|BGG AAG|FAA def|ggg eag|
fdd cAA|BGG AAG|FAA def|gec d2e|
fdd c2A|B=cB BAG|FAA def|ggg bag|
=f/^f/fd cAA|B=cB A2G|FAA def|gec d2A||
FAA {A}BAG|FAA {A}BAG|FAA def|ggg bag|
fdd cAA|B=cB AAG|FAA def|gec d2z|
aa/a/a bag|^gaa ba=g|^gaa ff/f/f|ggg bag|
f2d cAA|B=cB A2G|FAA def|gec Hd2||

